X: 4
T: Planxty Irwin
R: jig
M: 6/8
L: 1/8
K: Cmaj
AB|c2 B ABc | G2F EDC | F2 D EFG | B,2 CD EG | c2B ABc |
G2F EDC | F2 D EF G | C2B, C2 G| c2 B ABc |
G2F EDC | F2 D EFG| B,2 CD EG | c2 B ABc |
G2F EDC | F2 D EFG | C2B, C2 G | c2c cBc |
d2d dBG| e2 e dec | BcA GAB | c2 B ABc |
G2F EDC |F2 D EFG|C2B, C2 G | c2c cBc|
d2e/2d/2 dBG | e2 e dec | BcA GAB| c2 B ABc |
G2F EDC | F2 D EFG | C2B, C2 G|


Tune 790	Setting 13931

